resources/icon/dice.svg

<?xml version="1.0" encoding="utf-8"?>
<!-- Generated by IcoMoon.io -->
<!DOCTYPE svg PUBLIC "-//W3C//DTD SVG 1.1//EN" "http://www.w3.org/Graphics/SVG/1.1/DTD/svg11.dtd">
<svg version="1.1" xmlns="http://www.w3.org/2000/svg" xmlns:xlink="http://www.w3.org/1999/xlink" width="20" height="20" viewBox="0 0 20 20">
<path fill="#000000" d="M5.5 16c-0.827 0-1.5-0.673-1.5-1.5s0.673-1.5 1.5-1.5 1.5 0.673 1.5 1.5-0.673 1.5-1.5 1.5zM5.5 14c-0.276 0-0.5 0.224-0.5 0.5s0.224 0.5 0.5 0.5 0.5-0.224 0.5-0.5-0.224-0.5-0.5-0.5z"></path>
<path fill="#000000" d="M5.5 12c-0.827 0-1.5-0.673-1.5-1.5s0.673-1.5 1.5-1.5 1.5 0.673 1.5 1.5-0.673 1.5-1.5 1.5zM5.5 10c-0.276 0-0.5 0.224-0.5 0.5s0.224 0.5 0.5 0.5 0.5-0.224 0.5-0.5-0.224-0.5-0.5-0.5z"></path>
<path fill="#000000" d="M5.5 8c-0.827 0-1.5-0.673-1.5-1.5s0.673-1.5 1.5-1.5 1.5 0.673 1.5 1.5-0.673 1.5-1.5 1.5zM5.5 6c-0.276 0-0.5 0.224-0.5 0.5s0.224 0.5 0.5 0.5 0.5-0.224 0.5-0.5-0.224-0.5-0.5-0.5z"></path>
<path fill="#000000" d="M13.5 8c-0.827 0-1.5-0.673-1.5-1.5s0.673-1.5 1.5-1.5 1.5 0.673 1.5 1.5-0.673 1.5-1.5 1.5zM13.5 6c-0.276 0-0.5 0.224-0.5 0.5s0.224 0.5 0.5 0.5 0.5-0.224 0.5-0.5-0.224-0.5-0.5-0.5z"></path>
<path fill="#000000" d="M13.5 12c-0.827 0-1.5-0.673-1.5-1.5s0.673-1.5 1.5-1.5 1.5 0.673 1.5 1.5-0.673 1.5-1.5 1.5zM13.5 10c-0.276 0-0.5 0.224-0.5 0.5s0.224 0.5 0.5 0.5 0.5-0.224 0.5-0.5-0.224-0.5-0.5-0.5z"></path>
<path fill="#000000" d="M13.5 16c-0.827 0-1.5-0.673-1.5-1.5s0.673-1.5 1.5-1.5 1.5 0.673 1.5 1.5-0.673 1.5-1.5 1.5zM13.5 14c-0.276 0-0.5 0.224-0.5 0.5s0.224 0.5 0.5 0.5 0.5-0.224 0.5-0.5-0.224-0.5-0.5-0.5z"></path>
<path fill="#000000" d="M15.5 19h-12c-1.378 0-2.5-1.122-2.5-2.5v-12c0-1.378 1.122-2.5 2.5-2.5h12c1.378 0 2.5 1.122 2.5 2.5v12c0 1.378-1.122 2.5-2.5 2.5zM3.5 3c-0.827 0-1.5 0.673-1.5 1.5v12c0 0.827 0.673 1.5 1.5 1.5h12c0.827 0 1.5-0.673 1.5-1.5v-12c0-0.827-0.673-1.5-1.5-1.5h-12z"></path>
</svg>

<svg xmlns="http://www.w3.org/2000/svg" width="20" height="20"><path d="M5.5 16c-.827 0-1.5-.673-1.5-1.5S4.673 13 5.5 13s1.5.673 1.5 1.5S6.327 16 5.5 16zm0-2a.5.5 0 100 1 .5.5 0 000-1zM5.5 12c-.827 0-1.5-.673-1.5-1.5S4.673 9 5.5 9 7 9.673 7 10.5 6.327 12 5.5 12zm0-2a.5.5 0 100 1 .5.5 0 000-1zM5.5 8C4.673 8 4 7.327 4 6.5S4.673 5 5.5 5 7 5.673 7 6.5 6.327 8 5.5 8zm0-2a.5.5 0 100 1 .5.5 0 000-1zM13.5 8c-.827 0-1.5-.673-1.5-1.5S12.673 5 13.5 5s1.5.673 1.5 1.5S14.327 8 13.5 8zm0-2a.5.5 0 100 1 .5.5 0 000-1zM13.5 12c-.827 0-1.5-.673-1.5-1.5S12.673 9 13.5 9s1.5.673 1.5 1.5-.673 1.5-1.5 1.5zm0-2a.5.5 0 100 1 .5.5 0 000-1zM13.5 16c-.827 0-1.5-.673-1.5-1.5s.673-1.5 1.5-1.5 1.5.673 1.5 1.5-.673 1.5-1.5 1.5zm0-2a.5.5 0 100 1 .5.5 0 000-1z"/><path d="M15.5 19h-12A2.503 2.503 0 011 16.5v-12C1 3.122 2.122 2 3.5 2h12C16.878 2 18 3.122 18 4.5v12c0 1.378-1.122 2.5-2.5 2.5zM3.5 3C2.673 3 2 3.673 2 4.5v12c0 .827.673 1.5 1.5 1.5h12c.827 0 1.5-.673 1.5-1.5v-12c0-.827-.673-1.5-1.5-1.5h-12z"/></svg>
